X:34
T: EIN HELLER UND EIN BATZEN
N: B0521
O: Europa, Mitteleuropa, Deutschland
R: Wander - Lied
M: 2/4
L: 1/16
K: G
B2 | B2B2B2B2 | c2c2z2
B2 | A2A2d3c | B4z2
B2 | B2B2B2B2 | A2d2d2
B2 | A3GF2E2 | D4z4
D2c2A4 | D2B2G4
c3Bc2e2 | d4z2
c2 | B2B2B2B2 | d2c2B2
A2 | G2G2B2A2 | G4z2

